modal/icons/gmail.svg

<svg preserveAspectRatio="xMidYMid" viewBox="0 0 256 194" xmlns="http://www.w3.org/2000/svg">
<defs>
<linearGradient id="linearGradient-1" x1=".0039%" x2="100.0322%">
<stop offset="0" stop-opacity=".1"></stop>
<stop offset="100%" stop-opacity=".2"></stop>
</linearGradient>
</defs>
<path d="m238.8339,193.595h-222.6797c-8.6345,0-15.9057-7.044-15.9057-15.9057v-160.8747c0-8.6345 7.0439-15.9057 15.9057-15.9057h222.6797c8.6345,0 15.9057,7.0439 15.9057,15.9057v160.8747c0,8.8617-7.044,15.9057-15.9057,15.9057z" fill="#e3e3e3"></path>
<path d="m32.0599,193.595 95.2069-76.5746 .6817-4.09-98.1608-70.6667-.2272,147.9229 2.4995,3.4084z" fill="#231f20" opacity=".1"></path>
<path d="m16.1542,193.595c-8.8617,0-15.9057-7.044-15.9057-15.9057v-161.1019c0-8.8617 7.0439-10.4523 15.9057-10.4523s15.9057,1.8178 15.9057,10.4523v177.0076h-15.9057z" fill="#d54b3d"></path>
<path d="m16.1542,8.4073c11.3612,0 13.6335,3.4084 13.6335,8.1801v174.7354h-13.6335c-7.4984,0-13.6335-6.1351-13.6335-13.6335v-161.1019c0-4.9989 2.2722-8.1801 13.6335-8.1801zm0-2.2722c-8.8617,0-15.9057,1.8178-15.9057,10.4523v161.1019c0,8.8617 7.0439,15.9057 15.9057,15.9057h15.9057v-177.0076c0-8.8617-7.0439-10.4523-15.9057-10.4523z" fill="#d72b27"></path>
<path d="m238.8339,193.595h-15.9057v-177.4621c0-8.8617 7.0439-9.9979 15.9057-9.9979s15.9057,1.1361 15.9057,9.9979v161.7836c0,8.6345-7.044,15.6785-15.9057,15.6785z" fill="#d54b3d"></path>
<path d="m238.8339,8.4073c10.2251,0 13.6335,2.045 13.6335,7.7256v161.7836c0,7.4984-6.1351,13.6335-13.6335,13.6335h-13.6335v-175.4171c0-5.9078 3.4084-7.7256 13.6335-7.7256zm0-2.2722c-8.8617,0-15.9057,1.1361-15.9057,9.9979v177.6893h15.9057c8.8617,0 15.9057-7.0439 15.9057-15.9057v-161.7836c0-8.8617-7.044-9.9979-15.9057-9.9979z" fill="#d72b27"></path>
<path d="m170.6667,193.595-169.0869-170.4003 8.8938,3.6177 117.7021,84.7546 126.5639-92.8066v159.1561c0,8.6345-7.044,15.6785-15.9057,15.6785h-68.1673z" fill="url(#linearGradient-1)"></path>
<path d="m127.2668,117.0205-120.2016-87.2541c-7.0439-5.2262-9.089-15.224-3.8628-22.268s15.4512-8.6345 22.7224-3.4084l101.5692,73.8479 102.2509-74.7568c7.0439-5.2262 17.0418-3.6356 22.268,3.6356 5.2262,7.0439 3.6356,17.0418-3.6356,22.268l-121.1105,87.9358z" fill="#d54b3d"></path>
<path d="m238.8339,2.2722c4.3173,0 8.4073,2.045 11.134,5.6806 4.3173,6.1351 2.9539,14.5423-2.9539,19.0868l-119.7471,87.2541-118.8382-86.3452c-6.1351-4.5445-7.7256-13.179-3.4084-19.0868 2.4995-3.4084 6.8167-5.6806 11.3612-5.6806 2.9539,0 5.9078.9089 8.1801,2.7267l101.342,73.6206 1.3633.9089 1.3633-.9089 102.0237-74.7568c2.4995-1.5906 5.2262-2.4995 8.1801-2.4995zm0-2.2722c-3.1811,0-6.5895.9089-9.3162,2.9539l-102.2509,74.7568-101.5692-73.8479c-2.7267-2.045-6.1351-2.9539-9.5434-2.9539-4.9989,0-9.9979,2.2722-13.179,6.5895-4.9989,7.0439-2.9539,17.0418 4.09,22.268l120.2016,87.4813 120.8833-88.163c7.0439-5.2262 8.6345-14.9968 3.6356-22.268-3.1811-4.5445-7.9528-6.8167-12.9518-6.8167z" fill="#d72b27"></path>
</svg>

<svg preserveAspectRatio="xMidYMid" viewBox="0 0 256 194" xmlns="http://www.w3.org/2000/svg"><defs><linearGradient id="a" x1=".004%" x2="100.032%"><stop offset="0" stop-opacity=".1"/><stop offset="100%" stop-opacity=".2"/></linearGradient></defs><path d="M238.834 193.595H16.154C7.52 193.595.25 186.551.25 177.689V16.815C.249 8.18 7.292.909 16.154.909h222.68c8.634 0 15.906 7.044 15.906 15.906v160.874c0 8.862-7.044 15.906-15.906 15.906z" fill="#e3e3e3"/><path d="M32.06 193.595l95.207-76.575.682-4.09-98.161-70.666-.227 147.923 2.499 3.408z" fill="#231f20" opacity=".1"/><path d="M16.154 193.595c-8.862 0-15.905-7.044-15.905-15.906V16.587c0-8.861 7.043-10.452 15.905-10.452S32.06 7.953 32.06 16.587v177.008H16.154z" fill="#d54b3d"/><path d="M16.154 8.407c11.361 0 13.634 3.409 13.634 8.18v174.736H16.154c-7.498 0-13.633-6.135-13.633-13.634V16.587c0-4.998 2.272-8.18 13.633-8.18zm0-2.272C7.292 6.135.25 7.953.25 16.587V177.69c0 8.862 7.043 15.906 15.905 15.906H32.06V16.587c0-8.861-7.044-10.452-15.906-10.452z" fill="#d72b27"/><path d="M238.834 193.595h-15.906V16.133c0-8.862 7.044-9.998 15.906-9.998s15.906 1.136 15.906 9.998v161.784c0 8.634-7.044 15.678-15.906 15.678z" fill="#d54b3d"/><path d="M238.834 8.407c10.225 0 13.633 2.045 13.633 7.726v161.784c0 7.498-6.135 13.633-13.633 13.633H225.2V16.133c0-5.908 3.409-7.726 13.634-7.726zm0-2.272c-8.862 0-15.906 1.136-15.906 9.998v177.69h15.906c8.862 0 15.906-7.045 15.906-15.906V16.133c0-8.862-7.044-9.998-15.906-9.998z" fill="#d72b27"/><path d="M170.667 193.595L1.58 23.195l8.894 3.617 117.702 84.755L254.74 18.76v159.157c0 8.634-7.044 15.678-15.906 15.678h-68.167z" fill="url(#a)"/><path d="M127.267 117.02L7.065 29.766C.021 24.54-2.024 14.542 3.202 7.498S18.654-1.136 25.925 4.09l101.569 73.848L229.744 3.18c7.045-5.226 17.043-3.635 22.269 3.636 5.226 7.044 3.635 17.041-3.636 22.268l-121.11 87.936z" fill="#d54b3d"/><path d="M238.834 2.272c4.317 0 8.407 2.045 11.134 5.68 4.317 6.136 2.954 14.543-2.954 19.088l-119.747 87.254L8.429 27.948C2.294 23.404.703 14.77 5.02 8.862c2.5-3.409 6.817-5.68 11.361-5.68 2.954 0 5.908.908 8.18 2.726l101.343 73.62 1.363.91 1.363-.91L230.654 4.772c2.5-1.591 5.226-2.5 8.18-2.5zm0-2.272c-3.181 0-6.59.909-9.316 2.954L127.267 77.71 25.697 3.863C22.972 1.818 19.563.909 16.155.909c-4.999 0-9.998 2.272-13.179 6.59-4.999 7.043-2.954 17.041 4.09 22.267l120.202 87.482L248.15 29.085c7.044-5.226 8.635-14.997 3.636-22.268C248.605 2.272 243.833 0 238.834 0z" fill="#d72b27"/></svg>
